assets/images/svg/theme-star-outline.svg

<svg width="19" height="18" viewBox="0 0 19 18" fill="none" xmlns="http://www.w3.org/2000/svg">
<g clip-path="url(#clip0_430_13015)">
<path d="M11.2886 2.15534L12.6965 4.9943C12.8884 5.3895 13.4004 5.76856 13.8323 5.84115L16.384 6.2686C18.0159 6.54282 18.3998 7.73647 17.224 8.914L15.2402 10.9142C14.9042 11.2529 14.7202 11.9062 14.8242 12.374L15.3922 14.85C15.8401 16.8098 14.8082 17.568 13.0884 16.5437L10.6967 15.1162C10.2647 14.8581 9.55279 14.8581 9.11284 15.1162L6.7211 16.5437C5.00929 17.568 3.96941 16.8018 4.41736 14.85L4.9853 12.374C5.08928 11.9062 4.9053 11.2529 4.56934 10.9142L2.58556 8.914C1.41769 7.73647 1.79365 6.54282 3.42547 6.2686L5.97719 5.84115C6.40114 5.76856 6.91308 5.3895 7.10506 4.9943L8.51291 2.15534C9.28082 0.614887 10.5287 0.614887 11.2886 2.15534Z" stroke="#F58218" stroke-width="1.5" stroke-linecap="round" stroke-linejoin="round"/>
</g>
<defs>
<clipPath id="clip0_430_13015">
<rect width="18" height="18" fill="white" transform="translate(0.906494)"/>
</clipPath>
</defs>
</svg>

<svg xmlns="http://www.w3.org/2000/svg" width="19" height="18" fill="none" viewBox="0 0 19 18"><g clip-path="url(#a)"><path stroke="#f58218" stroke-linecap="round" stroke-linejoin="round" stroke-width="1.5" d="m11.289 2.155 1.408 2.84c.191.394.703.774 1.135.846l2.552.428c1.632.274 2.016 1.467.84 2.645l-1.984 2c-.336.339-.52.992-.416 1.46l.568 2.476c.448 1.96-.584 2.718-2.304 1.694l-2.391-1.428c-.432-.258-1.144-.258-1.584 0L6.72 16.544c-1.712 1.024-2.752.258-2.304-1.694l.568-2.476c.104-.468-.08-1.121-.416-1.46l-1.983-2c-1.168-1.178-.792-2.371.84-2.645l2.551-.428c.424-.072.936-.452 1.128-.847l1.408-2.839c.768-1.54 2.016-1.54 2.776 0"/></g><defs><clipPath id="a"><path fill="#fff" d="M.906 0h18v18h-18z"/></clipPath></defs></svg>
